X: 20142
Q: "Moderate."
M: C
L: 1/8
K: A
cee>f f<eaf | e>fec {c}B2zA |\
cee>f f>eaf | e>cB>A A2z |] e |\
a>bag f>eaf | ea/g/ f/e/d/c/ {c}B2zA |\
cee>f fea>f | e>c{c}B>A A2z |]


